www/assets/icons/multiline_chart.svg

<svg width="24" height="24" viewBox="0 0 24 24" xmlns="http://www.w3.org/2000/svg" fill='currentColor'><path d="M22 7.17488L20.59 5.76488L17.74 8.97488C15.68 6.65488 12.83 5.25488 9.61 5.25488C6.72 5.25488 4.07 6.41488 2 8.25488L3.42 9.67488C5.12 8.18488 7.27 7.25488 9.61 7.25488C12.35 7.25488 14.7 8.51488 16.38 10.4949L13.5 13.7349L9.5 9.73488L2 17.2449L3.5 18.7449L9.5 12.7349L13.5 16.7349L17.55 12.1849C18.3 13.5349 18.8 15.0849 18.99 16.7349H21C20.78 14.4349 20.05 12.3449 18.96 10.5949L22 7.17488Z"/></svg>

<svg xmlns="http://www.w3.org/2000/svg" width="24" height="24" viewBox="0 0 24 24" fill='currentColor'><path d="m22 7.175-1.41-1.41-2.85 3.21c-2.06-2.32-4.91-3.72-8.13-3.72-2.89 0-5.54 1.16-7.61 3l1.42 1.42c1.7-1.49 3.85-2.42 6.19-2.42 2.74 0 5.09 1.26 6.77 3.24l-2.88 3.24-4-4-7.5 7.51 1.5 1.5 6-6.01 4 4 4.05-4.55c.75 1.35 1.25 2.9 1.44 4.55H21c-.22-2.3-.95-4.39-2.04-6.14z"/></svg>
